img/fb-r.svg

<svg width="18" height="18" viewBox="0 0 18 18" fill="none" xmlns="http://www.w3.org/2000/svg">
<path d="M15.7475 0H2.25249C1.01661 0 0 1.01661 0 2.25249V15.7475C0 16.9834 1.01661 18 2.25249 18H9.00997V11.8206H6.75748V8.99003H9.00997V6.75748C9.00997 4.90365 10.5249 3.3887 12.3787 3.3887H14.6312V6.1794H13.515C12.897 6.1794 12.3987 6.1196 12.3987 6.73754V8.99003H15.2093L14.093 11.8007H12.3987V17.9801H15.7475C16.9834 17.9801 18 16.9635 18 15.7276V2.25249C18 1.01661 16.9834 0 15.7475 0Z" fill="#ED1C24"/>
</svg>

<svg width="18" height="18" viewBox="0 0 18 18" fill="none" xmlns="http://www.w3.org/2000/svg"><path d="M15.748 0H2.252A2.263 2.263 0 000 2.252v13.495A2.263 2.263 0 002.252 18H9.01v-6.18H6.757V8.99H9.01V6.757a3.377 3.377 0 013.369-3.368h2.252v2.79h-1.116c-.618 0-1.116-.06-1.116.559V8.99h2.81l-1.116 2.81h-1.694v6.18h3.349A2.263 2.263 0 0018 15.728V2.252A2.263 2.263 0 0015.748 0z" fill="#ED1C24"/></svg>
